X: 6192
T: Carefree, The
R: slip jig
M: 9/8
K: Gmajor
|:d2B cBA BGE|D2G GFG ABc|d2B cBA BGE|DGE FAF G3:|
e2c A2e edc|d2B G2B dcB|c2A F2A cBA|BAG cBA de=f|
e2c A2e edc|d2B G2B dcB|cAF DFA cBA|B/c/dB cAF G3||

